lib/functional/commerce/storefront.svg

<svg xmlns="http://www.w3.org/2000/svg" fill="none" stroke="currentColor" aria-hidden="true" viewBox="0 0 32 32"><g id="Icon-Storefront"><g clip-path="url(#clip0_12_5718)"><g id="size=md (32px)"><g id="Storefront"><path id="Vector" stroke-linecap="round" stroke-linejoin="round" stroke-width="2" d="M6 17.45V26C6 26.2652 6.10536 26.5195 6.29289 26.7071C6.48043 26.8946 6.73478 27 7 27H25C25.2652 27 25.5196 26.8946 25.7071 26.7071C25.8946 26.5195 26 26.2652 26 26V17.45"/><path id="Vector_2" stroke-linecap="round" stroke-linejoin="round" stroke-width="2" d="M6.75 5H25.25C25.4669 5.00179 25.6776 5.0732 25.8508 5.20373C26.0241 5.33425 26.1509 5.51698 26.2125 5.725L28 12H4L5.7875 5.725C5.84909 5.51698 5.97587 5.33425 6.14916 5.20373C6.32244 5.0732 6.53306 5.00179 6.75 5V5Z"/><path id="Vector_3" stroke-linecap="round" stroke-linejoin="round" stroke-width="2" d="M12 12V14C12 15.0609 11.5786 16.0783 10.8284 16.8284C10.0783 17.5786 9.06087 18 8 18C6.93913 18 5.92172 17.5786 5.17157 16.8284C4.42143 16.0783 4 15.0609 4 14V12"/><path id="Vector_4" stroke-linecap="round" stroke-linejoin="round" stroke-width="2" d="M20 12V14C20 15.0609 19.5786 16.0783 18.8284 16.8284C18.0783 17.5786 17.0609 18 16 18C14.9391 18 13.9217 17.5786 13.1716 16.8284C12.4214 16.0783 12 15.0609 12 14V12"/><path id="Vector_5" stroke-linecap="round" stroke-linejoin="round" stroke-width="2" d="M28 12V14C28 15.0609 27.5786 16.0783 26.8284 16.8284C26.0783 17.5786 25.0609 18 24 18C22.9391 18 21.9217 17.5786 21.1716 16.8284C20.4214 16.0783 20 15.0609 20 14V12"/></g></g></g></g><defs><clipPath id="clip0_12_5718"><rect width="32" height="32" fill="white" rx="5"/></clipPath></defs></svg>

<svg xmlns="http://www.w3.org/2000/svg" fill="none" stroke="currentColor" aria-hidden="true" viewBox="0 0 32 32"><g stroke="#101828" stroke-linecap="round" stroke-linejoin="round" stroke-width="2" clip-path="url(#a)"><path d="M6 17.45V26a1 1 0 0 0 1 1h18a1 1 0 0 0 1-1v-8.55M6.75 5h18.5a1.012 1.012 0 0 1 .962.725L28 12H4l1.787-6.275A1.012 1.012 0 0 1 6.75 5v0Z"/><path d="M12 12v2a4 4 0 1 1-8 0v-2m16 0v2a4 4 0 1 1-8 0v-2m16 0v2a4 4 0 1 1-8 0v-2"/></g><defs><clipPath id="a"><rect width="32" height="32" fill="#fff" rx="5"/></clipPath></defs></svg>
